packages/match-logos/mono/svg/spotify.svg

<svg fill="none" height="48" viewBox="0 0 160 48" width="160" xmlns="http://www.w3.org/2000/svg" xmlns:xlink="http://www.w3.org/1999/xlink"><clipPath id="a"><path d="m0 0h159.714v48h-159.714z"/></clipPath><g clip-path="url(#a)"><path d="m23.9989.067749c13.2145 0 23.9265 10.711951 23.9265 23.926251 0 13.2152-10.712 23.9269-23.9265 23.9269-13.2143 0-23.9268785-10.7117-23.9268785-23.9269 0-13.2143 10.7125785-23.926251 23.9268785-23.926251zm111.6971 11.991451c1.404 0 2.341.224 3.074.4417.103.0314.176.1203.189.2246l.002.0351v3.1171c.001.043-.009.0853-.029.1236-.019.0383-.047.0714-.082.0966s-.075.0417-.118.0483c-.042.0065-.086.0028-.126-.0107-.694-.2315-1.313-.3846-2.085-.3846-1.267 0-1.846.6446-1.869 2.0868v.0875.5111h6.319c.101 0 .193.056.239.1437l.013.0306 4.321 11.2751 3.945-11.2677c.017-.0476.047-.0896.086-.1213s.086-.0518.136-.0581l.034-.0023h3.851c.041.0001.081.0094.118.0273.037.0178.069.0437.094.0757s.043.0693.052.1091c.008.0398.008.0811-.001.1208l-.012.0363-6.417 16.5828c-1.331 3.4229-2.841 4.6954-5.572 4.6954-1.46 0-2.642-.3025-3.951-1.0114-.055-.0298-.098-.0782-.122-.1366-.023-.0585-.025-.1233-.006-.1831l.012-.0303 1.254-2.7506c.015-.0339.037-.0644.064-.0896.028-.0251.06-.0444.096-.0566.035-.0112.072-.0152.109-.0117.037.0034.073.0143.106.0319.702.384 1.388.5786 2.04.5786.788 0 1.37-.2531 1.956-1.5086l.041-.0894-5.29-12.6851h-3.454v12.6885c0 .0665-.025.1305-.069.1801s-.105.0813-.171.0891l-.031.0017h-3.699c-.066-.0001-.13-.0246-.18-.0687-.049-.0442-.081-.1049-.088-.1707l-.002-.0315v-12.6885h-1.777c-.066-.0002-.13-.0246-.18-.0687s-.082-.1048-.09-.1708l-.001-.0314v-3.1954c0-.1386.105-.2534.24-.2692l.031-.0017h1.777v-.7828c0-3.638 1.806-5.562 5.223-5.562zm-52.5674 6.0225c3.8711 0 7.79 2.9809 7.79 8.6786 0 5.6966-3.9189 8.6766-7.79 8.6766-2.0377 0-3.7174-.7394-5.1092-2.2523l-.0922-.102v6.6377c-.0001.0664-.0244.1305-.0685.1801-.044.0497-.1048.0815-.1707.0893l-.0314.0018h-3.6989c-.0663-.0002-.1303-.0246-.1798-.0688-.0496-.0442-.0811-.105-.0887-.171l-.0018-.0314v-21.0291c0-.1389.1043-.2537.2389-.2695l.0314-.0017h3.6989c.1388 0 .2531.1049.2686.2397l.002.0315v1.8925c1.4091-1.6814 3.118-2.502 5.2014-2.502zm17.8354 0c4.969 0 8.859 3.812 8.859 8.6786 0 4.8829-3.917 8.7089-8.92 8.7089-4.9516 0-8.8304-3.7986-8.8304-8.6469 0-4.9017 3.9057-8.7406 8.8914-8.7406zm-37.3871-5.2262c3.0337 0 5.6291.8991 7.934 2.7485.0491.0395.0829.0948.0957.1565.0128.0616.0037.1258-.0257.1815l-.0186.03-2.0171 2.8435c-.0208.0295-.0473.0545-.078.0734-.0307.019-.0649.0315-.1006.0368-.0357.0058-.0721.0044-.1072-.0041s-.0681-.024-.0971-.0456c-1.9369-1.444-3.7837-2.1454-5.6466-2.1454-1.9217 0-3.2143.9234-3.2143 2.2963 0 1.4526.7358 2.144 4.8669 3.1291 5.0331 1.224 7.0857 3.124 7.0857 6.5595 0 4.0648-3.106 6.6914-7.9126 6.6914-3.3977 0-6.546-1.2074-9.1062-3.4929-.0484-.0428-.0798-.1016-.0883-.1656-.0086-.064.0062-.1289.0417-.1829l.02-.0266 2.2617-2.6917c.023-.0275.0512-.0501.0831-.0665.0318-.0164.0666-.0262.1023-.029.072-.0043.143.0187.1986.0646 2.2003 1.9054 4.1674 2.7177 6.5786 2.7177 2.1711 0 3.5203-.9394 3.5203-2.4505 0-1.364-.6672-2.1266-4.6203-3.0372-4.6446-1.1226-7.3323-2.5768-7.3323-6.684 0-3.83 3.1157-6.5068 7.5763-6.5068zm52.5521 1.132c.139 0 .253.1045.268.2394l.002.0314v4.1617h4.071c.139 0 .252.1049.268.2397l.001.0315v3.1791c.001.0663-.024.1303-.068.1799-.043.0496-.104.0814-.17.0893l-.031.0017h-4.071v7.6465c0 1.2078.53 1.7463 1.716 1.7463.77 0 1.459-.1654 2.172-.524.039-.0194.081-.0292.125-.0286.043.0005.085.0114.124.0318.038.0204.07.0496.095.0853.025.0356.04.0766.046.1195l.002.0349v3.0274c0 .0477-.013.0946-.037.1358s-.058.0753-.1.0988c-1.037.5883-2.138.8623-3.465.8623-3.226 0-4.88-1.6475-4.917-4.8972l-.001-.1125v-8.2263h-1.778c-.067-.0002-.131-.0246-.18-.0688-.049-.0441-.081-.1049-.088-.1707l-.002-.0314v-3.1791c0-.1389.104-.2537.238-.2695l.032-.0017h1.778v-4.1617c0-.0664.025-.1306.069-.1802s.105-.0812.171-.0889l.032-.0017zm-81.6518 18.54c-6.3066-3.8538-14.1249-4.7506-23.2392-2.6669-.191.0434-.3715.124-.5313.2373-.1597.1133-.2956.2569-.3998.4228-.1041.1658-.1746.3506-.2072.5437-.0327.1931-.0269.3908.0169.5816.0436.1909.1243.3714.2376.531.1133.1597.257.2955.4228.3996.1658.1042.3505.1746.5435.2074.1931.0327.3907.0271.5815-.0165 8.3286-1.9026 15.4006-1.1269 21.0194 2.3071.1672.1023.3529.1705.5464.2009.1936.0304.3913.0223.5817-.0237.1905-.0461.37-.1294.5282-.2449.1583-.1156.2922-.2612.394-.4286.1023-.1671.1706-.3527.201-.5463.0305-.1935.0226-.3911-.0234-.5816-.0459-.1904-.1289-.37-.2442-.5283-.1154-.1584-.2608-.2925-.4279-.3946zm91.9528-14.1075c.066.0001.131.0246.18.0688.05.0441.081.105.089.1709l.002.0315v16.1385c0 .0664-.025.1305-.069.1801s-.105.0813-.171.0891l-.031.0017h-3.699c-.067 0-.131-.0244-.18-.0686-.05-.0441-.082-.1049-.089-.1708l-.002-.0315v-16.1385c0-.0665.024-.1306.069-.1802.044-.0497.104-.0814.17-.0893l.032-.0017zm-25.527 3.4449c-2.6601 0-4.5901 2.0588-4.5901 4.8954 0 2.8249 1.9991 4.9554 4.6511 4.9554 2.677 0 4.62-2.0571 4.62-4.8934 0-2.8268-2.013-4.9574-4.681-4.9574zm-18.6307-.0297c-2.5294 0-4.4374 2.1165-4.4374 4.9251 0 2.8089 1.908 4.9252 4.4374 4.9252 2.5586 0 4.3454-2.0243 4.3454-4.9252 0-2.8543-1.828-4.9251-4.3454-4.9251zm-44.9866 3.6634c-7.3851-4.5386-18.188-5.8157-26.8783-3.1789-.47301.1442-.86958.4701-1.10272.9063-.23315.4361-.28383.9469-.14094 1.4203.29942.9846 1.34146 1.5409 2.32796 1.2429 7.6072-2.3092 17.412-1.1643 23.842 2.7883.8769.5388 2.0249.2637 2.5657-.6143.5392-.876.2632-2.0246-.6137-2.5646zm119.7333-7.11c.342-.0014.681.0649.998.1952.316.1303.604.3218.846.5637s.433.5293.564.8456c.13.3164.197.6554.195.9975 0 1.4277-1.153 2.6183-2.617 2.6183s-2.603-1.1757-2.603-2.6034c0-1.428 1.154-2.6169 2.617-2.6169zm0 .2589c-1.333 0-2.342 1.06-2.342 2.358 0 1.2971 1.002 2.3431 2.328 2.3431 1.334 0 2.344-1.0594 2.344-2.358 0-1.2974-1.003-2.3431-2.33-2.3431zm.159.9094c.635 0 1.052.3246 1.052.8714 0 .448-.259.7217-.634.83l.737 1.0309h-.621l-.663-.9455h-.57v.9455h-.52v-2.7323zm-116.7417-2.1269c-8.8789-5.2705-22.9286-5.766-31.38028-3.2005-.56796.1724-1.04416.5634-1.3239 1.087-.27973.5235-.3401 1.1367-.16781 1.7047.08533.2811.22522.5427.41165.7698.18644.2271.41579.4153.67494.5538.25916.1384.54305.2245.83547.2532.29242.0288.58763-.0003.86883-.0857 7.3625-2.2346 20.0842-1.8134 27.7968 2.7669 1.0609.6314 2.4355.2808 3.0663-.7826.1501-.2527.2489-.5325.2908-.8233.0419-.2909.0261-.5872-.0465-.872-.0727-.2847-.2007-.5524-.3768-.7877-.176-.2353-.3968-.4336-.6495-.5836zm116.7207 2.5955h-.678v.8642h.678c.338 0 .54-.1654.54-.4325 0-.2812-.202-.4317-.54-.4317zm-32.558-8.9538c1.465 0 2.653 1.1866 2.653 2.652 0 1.466-1.188 2.6538-2.653 2.6538s-2.654-1.1878-2.654-2.6538c0-1.4654 1.189-2.652 2.654-2.652z" fill="#1f304c"/></g></svg>

<svg width="160" height="48" viewBox="0 0 160 48" fill="none" xmlns="http://www.w3.org/2000/svg">
<g clip-path="url(#clip0)">
<path d="M23.9989 0.067749C37.2134 0.067749 47.9254 10.7797 47.9254 23.994C47.9254 37.2092 37.2134 47.9209 23.9989 47.9209C10.7846 47.9209 0.0720215 37.2092 0.0720215 23.994C0.0720215 10.7797 10.7846 0.067749 23.9989 0.067749ZM135.696 12.0592C137.1 12.0592 138.037 12.2832 138.77 12.5009C138.873 12.5323 138.946 12.6212 138.959 12.7255L138.961 12.7606V15.8777C138.962 15.9207 138.952 15.963 138.932 16.0013C138.913 16.0396 138.885 16.0727 138.85 16.0979C138.815 16.1231 138.775 16.1396 138.732 16.1462C138.69 16.1527 138.646 16.149 138.606 16.1355C137.912 15.904 137.293 15.7509 136.521 15.7509C135.254 15.7509 134.675 16.3955 134.652 17.8377L134.652 17.9252V18.4363H140.971C141.072 18.4363 141.164 18.4923 141.21 18.58L141.223 18.6106L145.544 29.8857L149.489 18.618C149.506 18.5704 149.536 18.5284 149.575 18.4967C149.614 18.465 149.661 18.4449 149.711 18.4386L149.745 18.4363H153.596C153.637 18.4364 153.677 18.4457 153.714 18.4636C153.751 18.4814 153.783 18.5073 153.808 18.5393C153.833 18.5713 153.851 18.6086 153.86 18.6484C153.868 18.6882 153.868 18.7295 153.859 18.7692L153.847 18.8055L147.43 35.3883C146.099 38.8112 144.589 40.0837 141.858 40.0837C140.398 40.0837 139.216 39.7812 137.907 39.0723C137.852 39.0425 137.809 38.9941 137.785 38.9357C137.762 38.8772 137.76 38.8124 137.779 38.7526L137.791 38.7223L139.045 35.9717C139.06 35.9378 139.082 35.9073 139.109 35.8821C139.137 35.857 139.169 35.8377 139.205 35.8255C139.24 35.8143 139.277 35.8103 139.314 35.8138C139.351 35.8172 139.387 35.8281 139.42 35.8457C140.122 36.2297 140.808 36.4243 141.46 36.4243C142.248 36.4243 142.83 36.1712 143.416 34.9157L143.457 34.8263L138.167 22.1412H134.713V34.8297C134.713 34.8962 134.688 34.9602 134.644 35.0098C134.6 35.0594 134.539 35.0911 134.473 35.0989L134.442 35.1006H130.743C130.677 35.1005 130.613 35.076 130.563 35.0319C130.514 34.9877 130.482 34.927 130.475 34.8612L130.473 34.8297V22.1412H128.696C128.63 22.141 128.566 22.1166 128.516 22.0725C128.466 22.0284 128.434 21.9677 128.426 21.9017L128.425 21.8703V18.6749C128.425 18.5363 128.53 18.4215 128.665 18.4057L128.696 18.404H130.473V17.6212C130.473 13.9832 132.279 12.0592 135.696 12.0592ZM83.1286 18.0817C86.9997 18.0817 90.9186 21.0626 90.9186 26.7603C90.9186 32.4569 86.9997 35.4369 83.1286 35.4369C81.0909 35.4369 79.4112 34.6975 78.0194 33.1846L77.9272 33.0826V39.7203C77.9271 39.7867 77.9028 39.8508 77.8587 39.9004C77.8147 39.9501 77.7539 39.9819 77.688 39.9897L77.6566 39.9915H73.9577C73.8914 39.9913 73.8274 39.9669 73.7779 39.9227C73.7283 39.8785 73.6968 39.8177 73.6892 39.7517L73.6874 39.7203V18.6912C73.6874 18.5523 73.7917 18.4375 73.9263 18.4217L73.9577 18.42H77.6566C77.7954 18.42 77.9097 18.5249 77.9252 18.6597L77.9272 18.6912V20.5837C79.3363 18.9023 81.0452 18.0817 83.1286 18.0817ZM100.964 18.0817C105.933 18.0817 109.823 21.8937 109.823 26.7603C109.823 31.6432 105.906 35.4692 100.903 35.4692C95.9514 35.4692 92.0726 31.6706 92.0726 26.8223C92.0726 21.9206 95.9783 18.0817 100.964 18.0817ZM63.5769 12.8555C66.6106 12.8555 69.206 13.7546 71.5109 15.604C71.56 15.6435 71.5938 15.6988 71.6066 15.7605C71.6194 15.8221 71.6103 15.8863 71.5809 15.942L71.5623 15.972L69.5452 18.8155C69.5244 18.845 69.4979 18.87 69.4672 18.8889C69.4365 18.9079 69.4023 18.9204 69.3666 18.9257C69.3309 18.9315 69.2945 18.9301 69.2594 18.9216C69.2243 18.9131 69.1913 18.8976 69.1623 18.876C67.2254 17.432 65.3786 16.7306 63.5157 16.7306C61.594 16.7306 60.3014 17.654 60.3014 19.0269C60.3014 20.4795 61.0372 21.1709 65.1683 22.156C70.2014 23.38 72.254 25.28 72.254 28.7155C72.254 32.7803 69.148 35.4069 64.3414 35.4069C60.9437 35.4069 57.7954 34.1995 55.2352 31.914C55.1868 31.8712 55.1554 31.8124 55.1469 31.7484C55.1383 31.6844 55.1531 31.6195 55.1886 31.5655L55.2086 31.5389L57.4703 28.8472C57.4933 28.8197 57.5215 28.7971 57.5534 28.7807C57.5852 28.7643 57.62 28.7545 57.6557 28.7517C57.7277 28.7474 57.7987 28.7704 57.8543 28.8163C60.0546 30.7217 62.0217 31.534 64.4329 31.534C66.604 31.534 67.9532 30.5946 67.9532 29.0835C67.9532 27.7195 67.286 26.9569 63.3329 26.0463C58.6883 24.9237 56.0006 23.4695 56.0006 19.3623C56.0006 15.5323 59.1163 12.8555 63.5769 12.8555ZM116.129 13.9875C116.268 13.9875 116.382 14.092 116.397 14.2269L116.399 14.2583V18.42H120.47C120.609 18.42 120.722 18.5249 120.738 18.6597L120.739 18.6912V21.8703C120.74 21.9366 120.715 22.0006 120.671 22.0502C120.628 22.0998 120.567 22.1316 120.501 22.1395L120.47 22.1412H116.399V29.7877C116.399 30.9955 116.929 31.534 118.115 31.534C118.885 31.534 119.574 31.3686 120.287 31.01C120.326 30.9906 120.368 30.9808 120.412 30.9814C120.455 30.9819 120.497 30.9928 120.536 31.0132C120.574 31.0336 120.606 31.0628 120.631 31.0985C120.656 31.1341 120.671 31.1751 120.677 31.218L120.679 31.2529V34.2803C120.679 34.328 120.666 34.3749 120.642 34.4161C120.618 34.4573 120.584 34.4914 120.542 34.5149C119.505 35.1032 118.404 35.3772 117.077 35.3772C113.851 35.3772 112.197 33.7297 112.16 30.48L112.159 30.3675V22.1412H110.381C110.314 22.141 110.25 22.1166 110.201 22.0724C110.152 22.0283 110.12 21.9675 110.113 21.9017L110.111 21.8703V18.6912C110.111 18.5523 110.215 18.4375 110.349 18.4217L110.381 18.42H112.159V14.2583C112.159 14.1919 112.184 14.1277 112.228 14.0781C112.272 14.0285 112.333 13.9969 112.399 13.9892L112.431 13.9875H116.129ZM34.4772 32.5275C28.1706 28.6737 20.3523 27.7769 11.238 29.8606C11.047 29.904 10.8665 29.9846 10.7067 30.0979C10.547 30.2112 10.4111 30.3548 10.3069 30.5207C10.2028 30.6865 10.1323 30.8713 10.0997 31.0644C10.067 31.2575 10.0728 31.4552 10.1166 31.646C10.1602 31.8369 10.2409 32.0174 10.3542 32.177C10.4675 32.3367 10.6112 32.4725 10.777 32.5766C10.9428 32.6808 11.1275 32.7512 11.3205 32.784C11.5136 32.8167 11.7112 32.8111 11.902 32.7675C20.2306 30.8649 27.3026 31.6406 32.9214 35.0746C33.0886 35.1769 33.2743 35.2451 33.4678 35.2755C33.6614 35.3059 33.8591 35.2978 34.0495 35.2518C34.24 35.2057 34.4195 35.1224 34.5777 35.0069C34.736 34.8913 34.8699 34.7457 34.9717 34.5783C35.074 34.4112 35.1423 34.2256 35.1727 34.032C35.2032 33.8385 35.1953 33.6409 35.1493 33.4504C35.1034 33.26 35.0204 33.0804 34.9051 32.9221C34.7897 32.7637 34.6443 32.6296 34.4772 32.5275ZM126.43 18.42C126.496 18.4201 126.561 18.4446 126.61 18.4888C126.66 18.5329 126.691 18.5938 126.699 18.6597L126.701 18.6912V34.8297C126.701 34.8961 126.676 34.9602 126.632 35.0098C126.588 35.0594 126.527 35.0911 126.461 35.0989L126.43 35.1006H122.731C122.664 35.1006 122.6 35.0762 122.551 35.032C122.501 34.9879 122.469 34.9271 122.462 34.8612L122.46 34.8297V18.6912C122.46 18.6247 122.484 18.5606 122.529 18.511C122.573 18.4613 122.633 18.4296 122.699 18.4217L122.731 18.42H126.43ZM100.903 21.8649C98.2429 21.8649 96.3129 23.9237 96.3129 26.7603C96.3129 29.5852 98.312 31.7157 100.964 31.7157C103.641 31.7157 105.584 29.6586 105.584 26.8223C105.584 23.9955 103.571 21.8649 100.903 21.8649ZM82.2723 21.8352C79.7429 21.8352 77.8349 23.9517 77.8349 26.7603C77.8349 29.5692 79.7429 31.6855 82.2723 31.6855C84.8309 31.6855 86.6177 29.6612 86.6177 26.7603C86.6177 23.906 84.7897 21.8352 82.2723 21.8352ZM37.2857 25.4986C29.9006 20.96 19.0977 19.6829 10.4074 22.3197C9.93439 22.4639 9.53782 22.7898 9.30468 23.226C9.07153 23.6621 9.02085 24.1729 9.16374 24.6463C9.46316 25.6309 10.5052 26.1872 11.4917 25.8892C19.0989 23.58 28.9037 24.7249 35.3337 28.6775C36.2106 29.2163 37.3586 28.9412 37.8994 28.0632C38.4386 27.1872 38.1626 26.0386 37.2857 25.4986ZM157.019 18.3886C157.361 18.3872 157.7 18.4535 158.017 18.5838C158.333 18.7141 158.621 18.9056 158.863 19.1475C159.105 19.3894 159.296 19.6768 159.427 19.9931C159.557 20.3095 159.624 20.6485 159.622 20.9906C159.622 22.4183 158.469 23.6089 157.005 23.6089C155.541 23.6089 154.402 22.4332 154.402 21.0055C154.402 19.5775 155.556 18.3886 157.019 18.3886ZM157.019 18.6475C155.686 18.6475 154.677 19.7075 154.677 21.0055C154.677 22.3026 155.679 23.3486 157.005 23.3486C158.339 23.3486 159.349 22.2892 159.349 20.9906C159.349 19.6932 158.346 18.6475 157.019 18.6475ZM157.178 19.5569C157.813 19.5569 158.23 19.8815 158.23 20.4283C158.23 20.8763 157.971 21.15 157.596 21.2583L158.333 22.2892H157.712L157.049 21.3437H156.479V22.2892H155.959V19.5569H157.178ZM40.4363 17.43C31.5574 12.1595 17.5077 11.664 9.05602 14.2295C8.48806 14.4019 8.01186 14.7929 7.73212 15.3165C7.45239 15.84 7.39202 16.4532 7.56431 17.0212C7.64964 17.3023 7.78953 17.5639 7.97596 17.791C8.1624 18.0181 8.39175 18.2063 8.6509 18.3448C8.91006 18.4832 9.19395 18.5693 9.48637 18.598C9.77879 18.6268 10.074 18.5977 10.3552 18.5123C17.7177 16.2777 30.4394 16.6989 38.152 21.2792C39.2129 21.9106 40.5875 21.56 41.2183 20.4966C41.3684 20.2439 41.4672 19.9641 41.5091 19.6733C41.551 19.3824 41.5352 19.0861 41.4626 18.8013C41.3899 18.5166 41.2619 18.2489 41.0858 18.0136C40.9098 17.7783 40.689 17.58 40.4363 17.43ZM157.157 20.0255H156.479V20.8897H157.157C157.495 20.8897 157.697 20.7243 157.697 20.4572C157.697 20.176 157.495 20.0255 157.157 20.0255ZM124.599 11.0717C126.064 11.0717 127.252 12.2583 127.252 13.7237C127.252 15.1897 126.064 16.3775 124.599 16.3775C123.134 16.3775 121.945 15.1897 121.945 13.7237C121.945 12.2583 123.134 11.0717 124.599 11.0717Z" fill="#1F304C"/>
</g>
<defs>
<clipPath id="clip0">
<rect width="159.714" height="48" fill="white"/>
</clipPath>
</defs>
</svg>
